build/img/icons/cube.svg

<svg width="40" height="40" viewBox="0 0 40 40" fill="none" xmlns="http://www.w3.org/2000/svg">
<path d="M16.25 5H5V16.2625H7.5V7.5H16.25V5Z" fill="#5CC773"/>
<path d="M36.8625 16.4L25.6125 10.15C25.4225 10.0403 25.2069 9.98254 24.9875 9.98254C24.7681 9.98254 24.5525 10.0403 24.3625 10.15L13.1125 16.4C12.9222 16.5128 12.7653 16.674 12.6576 16.8673C12.55 17.0605 12.4956 17.2789 12.5 17.5V30C12.5016 30.2228 12.5627 30.441 12.677 30.6322C12.7913 30.8234 12.9546 30.9806 13.15 31.0875L24.4 37.3375C24.5831 37.4413 24.7895 37.4972 25 37.5C25.2144 37.4967 25.4247 37.4409 25.6125 37.3375L36.8625 31.0875C37.0556 30.979 37.2164 30.8211 37.3284 30.63C37.4404 30.4389 37.4996 30.2215 37.5 30V17.5C37.5018 17.2764 37.4437 17.0564 37.3315 16.8629C37.2194 16.6694 37.0574 16.5096 36.8625 16.4ZM23.75 34.125L15 29.2625V19.6125L23.75 24.475V34.125ZM25 22.3125L16.325 17.5L25 12.675L33.675 17.5L25 22.3125ZM35 29.2625L26.25 34.125V24.475L35 19.6125V29.2625Z" fill="#5CC773"/>
</svg>

<svg width="40" height="40" fill="none" xmlns="http://www.w3.org/2000/svg">
    <path d="M16.25 5H5v11.262h2.5V7.5h8.75V5zM36.862 16.4l-11.25-6.25a1.25 1.25 0 0 0-1.25 0l-11.25 6.25a1.25 1.25 0 0 0-.612 1.1V30a1.25 1.25 0 0 0 .65 1.087l11.25 6.25c.183.104.39.16.6.163.214-.003.425-.06.613-.163l11.25-6.25A1.25 1.25 0 0 0 37.5 30V17.5a1.25 1.25 0 0 0-.638-1.1zM23.75 34.125 15 29.262v-9.65l8.75 4.863v9.65zM25 22.312 16.325 17.5 25 12.675l8.675 4.825L25 22.313zm10 6.95-8.75 4.863v-9.65L35 19.612v9.65z" fill="#5CC773"/>
</svg>
